X: 34414
T: Richard Dwyer's
R: reel
M: 4/4
K: Adorian
|:(3ABA EA cdec|(3ded BG AEGF|EAcA Bdgf|eaag (3aba ag|
eaed cA A2|Bgdc Bcdc|AEcE dEcd|ecBG EA A2:|
|:(3aba ea c'aea|(3gbg dg bgdg|aged cded|cABG EA A2|
(3aba ea ^caea|(3gbg eg dBGB|A2 (3B^cd eaaf|gedg eA A2:|

